X: 1
T: Out on the Ocean
C: Trad
R: Jig
M: 6/8
L: 1/8
K: Gmaj
Z: ABC transcription by Verge Roller
r: 32
|: FE |  "G" D2 B BAG | "G" BdB "D" ABA | "G" GED G2 A | "G" BdB "D" AGE |
"G" D2 B BAG | "G" BdB "D" ABA | "G" GED G2 A | "G" BGG G :|
|: Bd | "Em" e2 e edB | "Em" e2 e edB | "Bm7" d2 d def | "C" gfe "D" dBA |
"G" G2 A B2 d | "C" ege "D" dBA | "G" GED G2 A | "G" BGG G:|
